X:978
T:Back to Kennebec Waltz
R:Waltz
C:Bruce Osborne  --  July 22 1986
M:3/4
L:1/8
K:A
AB|:c2(3BcBA2|E4 (3EFE|D3 zFA|E4E2|!
CEA2AB|c2(3BcBA2|B3 ABc|B4AB|!
c2(3BcBA2|E4(3EFE|D3 zFA|E4E2|!
CEA2AB|c2(3BcBA2|B2c2(3BcB|A4AB:|!
|:[c2e2](3[Be][ce][Be][A2e2]|[c2e2](3[Be][ce][Be][A2e2]|[F2d2][F2d2][D2A2]|[E3c3] [Ec][E2c2]|!
[C3A3] [CA][C2A2]|[C4A4][Ec][Ec]|[E2c2][D2B2][C2A2]|[E4B4][Ae][Be]|!
[c2e2](3[Be][ce][Be][A2e2]|[c2e2](3[Be][ce][Be][A2e2]|[F2d2][F2d2][D2A2]|[E3c3] [Ec][E2c2]|!
[C3A3] [CA][C2A2]|[C2A2][F2d2][D2A2]|[E2c2][E2c2][D2B2]|[C4A4][C2A2]:|!


